libs/icons/src/svg/arrow-up.svg

<svg width="16" height="16" viewBox="0 0 16 16" fill="none" xmlns="http://www.w3.org/2000/svg">
<path d="M13.1334 5.51666L8.46669 0.84999C8.40002 0.783323 8.33335 0.716656 8.26669 0.716656C8.06669 0.64999 7.93335 0.64999 7.73335 0.716656C7.66669 0.716656 7.60002 0.783323 7.53335 0.84999L2.86669 5.51666C2.60002 5.78332 2.60002 6.18332 2.86669 6.44999C3.13335 6.71666 3.53335 6.71666 3.80002 6.44999L7.33335 2.91666V14.65C7.33335 15.05 7.60002 15.3167 8.00002 15.3167C8.40002 15.3167 8.66669 15.05 8.66669 14.65V2.91666L12.2 6.44999C12.3334 6.58332 12.4667 6.64999 12.6667 6.64999C12.8667 6.64999 13 6.58332 13.1334 6.44999C13.4 6.18332 13.4 5.78332 13.1334 5.51666Z" fill="#202327"/>
</svg>

<svg xmlns="http://www.w3.org/2000/svg" viewBox="0 0 16 16" class="sageicon"><path d="M13.133 5.517 8.467.85C8.4.783 8.333.717 8.267.717a.736.736 0 0 0-.534 0c-.066 0-.133.066-.2.133L2.867 5.517a.644.644 0 0 0 0 .933.644.644 0 0 0 .933 0l3.533-3.533V14.65c0 .4.267.667.667.667s.667-.267.667-.667V2.917L12.2 6.45c.133.133.267.2.467.2s.333-.067.466-.2a.645.645 0 0 0 0-.933Z"/></svg>
